X: 1
T: Out The Door And Over The Wall
M: 9/8
L: 1/8
R: slip jig
K: Dmaj
|:[M:11/8]EFE EFGA B2A2|[M:7/8]GAG G2G2|FED E2E2:|
|:ABA A2A2|ABA A2A2|GAG G2G2|FED E2E2:|
|:EFE =c2c2|EFE =c2c2|EFE B2B2|FED E2E2:|
|:edc c2c2|Bcd c2c2|edc c2c2|BA^G A2z2|edc c2c2|
[M:9/8]Bcd cde def|[M:7/8]edc c2c2|BAG A2z2:|
